!!!COM: Anonymous
!!!CDT: [?]
!!!OTL@@POL: Nieskończone i nieprzebrane
!!!TXO: Polish
!!!ODT: 
!!!GTL: Hymnbook E
!!!ARL: Opactwo św. Wojciecha, Staniątki 
!!!voices:	2
**kern	**kern	**text
*staff2	*staff1	*staff1
*I"Basso	*I"Canto I	*
=1-	=1-	=1-
*clefF4	*clefG2	*
*k[b-]	*k[b-]	*
*M3/2	*M3/2	*
2r	2r	.
2C/	2cc\	Nie-
2C/	2cc\	-skoń-
=2	=2	=2
1G	1bn	-czo-
2G\	2b\	-ne
=3	=3	=3
2F\	2cc\	i
2D\	2dd\	nie-
2C/	2ee-\	-prze-
=4	=4	=4
1GG	1dd	-bra-
2C/	2cc\	-ne
=5	=5	=5
1C	1ee-	źr&oacute;d-
2BB-/	2dd\	-ło
=6	=6	=6
1D	1ff	skar-
2BBn/	2ff\	-b&oacute;w
=7	=7	=7
2C/	4ee-\	nie-
.	4dd\	.
2A-\	4cc\	-wy-
.	4dd\	.
2F\	4ee-\	-czer-
.	4ff\	.
=8	=8	=8
1G	1dd	-pa-
2C/	2cc\	-ne
=9||	=9||	=9||
2r	2r	.
2A-\	2cc\	Nie-
2E-\	2b-\	-zro-
=10	=10	=10
1F	1a-	-dzo-
2F\	2a-/	-ny
=11	=11	=11
2C/	2g/	łask
2D\	4g/	o-
.	4a-/	.
2E\	4b-\	-ce-
.	4cc\	.
=12	=12	=12
1F	1a-	-a-
2C/	2g/	-nie
=13	=13	=13
2r	2r	.
2c\	2ee-\	nie-
2B-\	2dd\	-po-
=14	=14	=14
1A-	1cc	-ję-
2G\	2bn\	-tej
=15	=15	=15
2.F\	2ff\	do-
.	4cc\	-bro-
4D\	4dd\	.
2C/	2ee-\	-ci
=16	=16	=16
1G	1dd	Pa-
2C;/	2cc;\	-nie.
==	==	==
*-	*-	*-
!!!GTL: Hymnbook E
!!!EFL: 87/117
!!!YEM: Creative Commons CC/BY/NC/SA 4.0
!!!ENC: Marcin Konik
!!!END: 
!!!EED: Marcin Konik
!!!EEV: 
!!!ONB: Translated from MusicXML and edited by Marcin Konik
!!!CharacterEncoding: utf-8
!!!RDF**kern: l=long note in original notation
!!!RDF**kern: i=editorial accidental
!!muse2ps: z14jc180F
